admin/src/theme/img/close_black_24dp.svg

<svg width="24" height="24" viewBox="0 0 24 24" xmlns="http://www.w3.org/2000/svg">
  <g fill="none" fill-rule="evenodd">
    <path d="M0 0h24v24H0z"/>
    <path d="m18.8232233 6.2332233-1.0564466-1.0564466c-.0976311-.09763108-.2559223-.09763108-.3535534 0l-5.2364466 5.2364466c-.0976311.0976311-.2559223.0976311-.3535534 0L6.5867767 5.1767767c-.09763108-.09763108-.25592232-.09763108-.3535534 0L5.1767767 6.2332233c-.09763108.09763108-.09763108.25592232 0 .3535534l5.2364466 5.2364466c.0976311.0976311.0976311.2559223 0 .3535534l-5.2364466 5.2364466c-.09763108.0976311-.09763108.2559223 0 .3535534l1.0564466 1.0564466c.09763108.0976311.25592232.0976311.3535534 0l5.2364466-5.2364466c.0976311-.0976311.2559223-.0976311.3535534 0l5.2364466 5.2364466c.0976311.0976311.2559223.0976311.3535534 0l1.0564466-1.0564466c.0976311-.0976311.0976311-.2559223 0-.3535534l-5.2364466-5.2364466c-.0976311-.0976311-.0976311-.2559223 0-.3535534l5.2364466-5.2364466c.0976311-.09763108.0976311-.25592232 0-.3535534Z" stroke="#333" fill="#333" fill-rule="nonzero"/>
  </g>
</svg>

<?xml version="1.0" encoding="UTF-8"?>
<svg width="24px" height="24px" viewBox="0 0 24 24" version="1.1" xmlns="http://www.w3.org/2000/svg" xmlns:xlink="http://www.w3.org/1999/xlink">
    <g id="Squat-laskuri" stroke="none" stroke-width="1" fill="none" fill-rule="evenodd">
        <g id="colors_and_typography" transform="translate(-860.000000, -842.000000)">
            <g id="icons" transform="translate(722.000000, 748.000000)">
                <g id="close_black_24dp" transform="translate(138.000000, 94.000000)">
                    <polygon id="Path" points="0 0 24 0 24 24 0 24"></polygon>
                    <path d="M18.8232233,6.2332233 L17.7667767,5.1767767 C17.6691456,5.07914562 17.5108544,5.07914562 17.4132233,5.1767767 L12.1767767,10.4132233 C12.0791456,10.5108544 11.9208544,10.5108544 11.8232233,10.4132233 L6.5867767,5.1767767 C6.48914562,5.07914562 6.33085438,5.07914562 6.2332233,5.1767767 L5.1767767,6.2332233 C5.07914562,6.33085438 5.07914562,6.48914562 5.1767767,6.5867767 L10.4132233,11.8232233 C10.5108544,11.9208544 10.5108544,12.0791456 10.4132233,12.1767767 L5.1767767,17.4132233 C5.07914562,17.5108544 5.07914562,17.6691456 5.1767767,17.7667767 L6.2332233,18.8232233 C6.33085438,18.9208544 6.48914562,18.9208544 6.5867767,18.8232233 L11.8232233,13.5867767 C11.9208544,13.4891456 12.0791456,13.4891456 12.1767767,13.5867767 L17.4132233,18.8232233 C17.5108544,18.9208544 17.6691456,18.9208544 17.7667767,18.8232233 L18.8232233,17.7667767 C18.9208544,17.6691456 18.9208544,17.5108544 18.8232233,17.4132233 L13.5867767,12.1767767 C13.4891456,12.0791456 13.4891456,11.9208544 13.5867767,11.8232233 L18.8232233,6.5867767 C18.9208544,6.48914562 18.9208544,6.33085438 18.8232233,6.2332233 Z" id="Path" stroke="#333333" fill="#333333" fill-rule="nonzero"></path>
                </g>
            </g>
        </g>
    </g>
</svg>
